!!!COM: Webern, Anton : von
!!!OPS: Opus 12 (Gesang und Klavier)
!!!OMV: Number 4
!!!OPR: Vier Lieder
!!!OTL: Gleich und Gleich Goethe)
!!!YEC: Copyright 1995 McGill???
!!!CDT: 1993/12/3-1945/9/15 
!!!YOR: Universal Edition
!!!YOO: Copyright 1925 by Universal Edition, renewed 1953 by Anton Webern's Erben
!!!ENC:Norma Welch
**kern	**kern	**kern	**text
*staff3	*staff2	*staff1	*
*ClefF4	*ClefG2	*ClefG2	*
*ICklav	*ICklav	*Ivox	*
*Ipiano	*Ipiano	*Ivox	*
*M3/4	*M3/4	*M3/4	*
*MM132	*MM132	*MM132	*
*k[]	*k[]	*k[]	*
*X:	*X:	*X:	*
!!Sehr flie·end (Dotted half = ca 44)
!	!p	!	!
=1-	=1-	=1-	=1-
2.r	4r	2.r	%
.	8gg#'	.	%
.	8an'	.	%
.	8dd#'	.	%
.	8gn'	.	%
=2	=2	=2	=2
*	*^	*	*
!!rit.
!!Ped begin
[2.En [2.Cn	[2.d- [2.fn	8r	2.r	%
!	!	!L.H.	!	!
.	.	4f#'	.	%
.	.	4bn'	.	%
!	!	!R.H.	!	!
.	.	8ffn'	.	%
=3	=3	=3	=3	=3
!!ppp
4.En] 4.Cn]	4.d-] 4.fn]	4.ccc#';	4r	%
.	.	.	4r,	%
8r	8r	.	.	%
*	*v	*v	*	*
!!Pedal off
!!tempo
4r	4r	8r	%
!	!	!p	!p
.	.	8an'	Ein
=4	=4	=4	=4
4FFn'	{4..Bn	(2g#	[Blu~
4F#'	.	.	||
.	16b-	.	||
4E-	4an	4een)	~men~
=5	=5	=5	=5
4r	2ddn	4bn'	~glîck~
!pp	!	!	!
8Cn'	.	4fn'	~chen
8F#'	.	.	|
!	!	!p	!p
8Bn	4cc#}	{4gn	{vom
8dn'	.	.	|
=6	=6	=6	=6
*ClefG2	*	*	*
8b-'	4ffn'	4..an	Bo~
8en'	.	.	||
8e-'	4f#'	.	||
8cn'	.	.	||
.	.	16b-	~den
8Bn'	4dn'	4an	her~
8B-'	.	.	||
=7	=7	=7	=7
*ClefF4	*	*	*
!pp	!pp	!	!
(4AAn	8r	4.cc#}	~vor}
.	([4b-	.	|
4G#')	.	.	|
.	.	8r	%
!	!	!mp	!mp
4r	8b-]	{4dd#	war
.	8Bn)	.	|
=8	=8	=8	=8
[2.AA- [2.En [2.Gn	4cn'	[2ff#	frÅh~
.	4ddn'	.	||
.	4cc#'	8ff#]	||
.	.	(8fn	ge~
=9	=9	=9	=9
4AA] 4En] 4Gn]	8r	4an)	~spros~
!	!pp	!	!
.	{8ddn	.	||
8r	8cc#	4b-'	~set
4.GGn 4.Cn 4F#	8g#	.	|
.	8An	8r	%
!	!	!p	!p
.	8dd#	{8bn	{in
=10	=10	=10	=10
2.Dn 2.B- 2.c#	8an	4ee-	lieb~
.	8g#	.	||
.	8r	4fn	~li~
!	!pp	!	!
.	(4an	.	||
.	.	4en	~chem
.	8g#)	.	|
=11	=11	=11	=11
*^	*	*	*
!pp	!pp zarf	!ppp	!	!
4F# 4Bn	{8fn	8r	4.ccn	Flor} ;
.	8en	(8bb-	.	|
4BBn': 4Gn':	4B-':}	4.aan)	.	|
.	.	.	8r	%
!!rit.
!ppp	!ppp	!	!	!
4F# 4Bn	{8fn	.	4r	%
.	8en	8r	.	%
=12	=12	=12	=12	=12
4AAn': 4Fn':	4G#':}	8r	2.r	%
*v	*v	*	*	*
!	!ppp	!	!
.	{8ffn	.	%
4r	8dd-	.	%
.	8ccn}	.	%
=13	=13	=13	=13
!	!	!frei pp	!frei pp
4r	4r	8r	%
.	.	8d#'	da
4r	12r	{8.en	{kam
!	!ppp	!	!
.	6ggn' 6eee-' 6fff#'	.	|
!!Pedal on
.	.	16fn	ein
12r	4r	8bn	Bein~
6EE-' 6AA-' 6Dn'	.	.	||
.	.	8f#}	~chen}
!!Pedal off
=14	=14	=14	=14
!	!	!ppp	!ppp
2.r	2.r	8r	%
.	.	(4fn	[und
.	.	8ddn')	nasch~
.	.	8ccn'	~te
.	.	4d-~	fein:
=15	=15	=15	=15
!!tempo
*	*ClefF4	*	*
*	*^	*	*
4r	4r	8r	2.r	%
!	!	!f	!	!
.	.	{8cn	.	%
4r	4r	8g-	.	%
.	.	8fn	.	%
[4CCn [4AAn	[4E-	8A-	.	%
.	.	8Bn	.	%
=16	=16	=16	=16	=16
!!rit.
2CCn;] 2AAn;]	2E-]	4.dn	2.r;	%
.	.	8c#;}	.	%
4r	4r	4r	.	%
*	*v	*v	*	*
=17	=17	=17	=17
*	*ClefG2	*	*
!!tempo
!pp	!pp	!p	!p
4r	8r	4ccn~	Die
.	8bbn' 8eee'	.	|
8F#'	8ffn'	{8.a-	mÅs~
8gn'	8r	.	||
.	.	16a-	~sen
8B-'	8r	4dn}	wohl
8r	8An' 8e-' 8f#'	.	||
=18	=18	=18	=18
8r	4Bn~ 4gn~ 4b-~	(4d-	bei~
8G#'	.	.	||
8An'	(4e- (4f# (4ddn	8cn)	~de
8Fn'	.	8r	%
!	!	!pp	!pp
8E-'	4c#) 4en) 4ccn)	{8.bn	fÅr
8GGn'	.	.	|
.	.	16g#	ein~
=19	=19	=19	=19
!!rit.
4BBBn~	8r	2ggn	~an~
*	*^	*	*
.	[4.B- [4.e-	8an'	.	||
8r	.	(8an	.	||
8Fn'	.	8g#)	.	||
8En'	4B-_ 4e-_	4ffn	4ffn	der
8GGn'	.	[8an	.	|
=20	=20	=20	=20	=20
8.CC#;	8B-_ 8e-_	8an]	8f#}	sein} *
.	16B-;] 16e-;]	16ccn;	8r;	%
*	*v	*v	*	*
16r	16r	.	%
!!tempo
8r	8r	4r	%
8r	8g#'	.	%
8Gn'	8r	4r	%
8r	8F#'	.	%
=21	=21	=21	=21
*	*^	*	*
4r	4r	4.fn	2.r	%
8AAn' 8Cn'	8G#' 8Bn'	.	.	%
8r	.	8r	.	%
4r	4r	4r	.	%
==|!	==|!	==|!	==|!	==|!
*-	*-	*-	*-	*-
